X:1
T:The White Cockade
C:Anonymous; arr. T. S. Macdonald
M:C
L:1/4
K:G
%%staves { 1 2 }
V:1
G/A/ | "G"B B B A/G/ | B B B g/e/ | d B "C"c/B/A/G/ | "D"F A A G/A/ |
"G"B B c/B/A/G/ | B d g > a | "G"b/a/g/f/ "C"e/f/g/e/ | "D"d B "G"B :|
|: B/c/ | "G"d B g B | d d d > e | d B g f/g/ | "A"a A "D"A G/A/ |
"G"B B c/B/A/G/ | B d g > a | b/a/g/f/ "C"e/f/g/e/ | "D"d B "G"B :|]
V:2 clef=treble
L:1/4
z | "0"G, G, G, "0"D | "0"G, G, G, "0"D | "0"G,2 "3"C2 | "0"D D D z |
"0"G, G, G,2 | "0"G, G, G,2 | G,2 "3"C2 | "0"D D "0"G, :|
|: z | "0"G, G, G, "0"D | "0"G, G, G,2 | "0"G, G, G, "0"D | "0"A A "0"D2 |
"0"G, G, G,2 | "0"G, G, G,2 | "0"G,2 "3"C2 | "0"D D "0"G, :|]

